svgs/thin/monument.svg

<svg xmlns="http://www.w3.org/2000/svg" viewBox="0 0 384 512"><!--! Font Awesome Pro 6.3.0 by @fontawesome - https://fontawesome.com License - https://fontawesome.com/license (Commercial License) Copyright 2023 Fonticons, Inc. --><path d="M197.7 24.97C194.5 21.85 189.5 21.85 186.3 24.97L125.3 85.98C121.6 89.71 119.2 94.58 118.5 99.82L79.93 393C79.36 397.4 75.34 400.5 70.96 399.9C66.58 399.4 63.49 395.3 64.07 390.1L102.7 97.73C103.8 88.1 107.8 80.89 114 74.66L175 13.66C184.4 4.286 199.6 4.286 208.1 13.66L269.1 74.66C276.2 80.89 280.2 88.1 281.3 97.73L319.9 390.1C320.5 395.3 317.4 399.4 313 399.9C308.7 400.5 304.6 397.4 304.1 393L265.5 99.82C264.8 94.58 262.4 89.71 258.7 85.98L197.7 24.97zM232 256C245.3 256 256 266.7 256 280V296C256 309.3 245.3 320 232 320H152C138.7 320 128 309.3 128 296V280C128 266.7 138.7 256 152 256H232zM232 272H152C147.6 272 144 275.6 144 280V296C144 300.4 147.6 304 152 304H232C236.4 304 240 300.4 240 296V280C240 275.6 236.4 272 232 272zM352 432C369.7 432 384 446.3 384 464V480C384 497.7 369.7 512 352 512H32C14.33 512 0 497.7 0 480V464C0 446.3 14.33 432 32 432H352zM16 480C16 488.8 23.16 496 32 496H352C360.8 496 368 488.8 368 480V464C368 455.2 360.8 448 352 448H32C23.16 448 16 455.2 16 464V480z"/></svg>

<svg xmlns="http://www.w3.org/2000/svg" viewBox="0 0 384 512"><!--! Font Awesome Pro 6.4.0 by @fontawesome - https://fontawesome.com License - https://fontawesome.com/license (Commercial License) Copyright 2023 Fonticons, Inc. --><path d="M197.7 25c-3.1-3.1-8.2-3.1-11.3 0l-61 61c-3.7 3.7-6.1 8.6-6.8 13.8L79.9 393c-.6 4.4-4.6 7.5-9 6.9s-7.5-4.6-6.9-9L102.7 97.7c1.1-8.7 5.1-16.8 11.4-23.1l61-61c9.4-9.4 24.6-9.4 33.9 0l61 61c6.2 6.2 10.2 14.3 11.4 23.1L319.9 391c.6 4.4-2.5 8.4-6.9 9s-8.4-2.5-9-6.9L265.5 99.8c-.7-5.2-3.1-10.1-6.8-13.8l-61-61zM232 272H152c-4.4 0-8 3.6-8 8v16c0 4.4 3.6 8 8 8h80c4.4 0 8-3.6 8-8V280c0-4.4-3.6-8-8-8zm-80-16h80c13.3 0 24 10.7 24 24v16c0 13.3-10.7 24-24 24H152c-13.3 0-24-10.7-24-24V280c0-13.3 10.7-24 24-24zM32 432H352c17.7 0 32 14.3 32 32v16c0 17.7-14.3 32-32 32H32c-17.7 0-32-14.3-32-32V464c0-17.7 14.3-32 32-32zM16 464v16c0 8.8 7.2 16 16 16H352c8.8 0 16-7.2 16-16V464c0-8.8-7.2-16-16-16H32c-8.8 0-16 7.2-16 16z"/></svg>
